public/assets/bot-9-icon.svg

<svg width="40" height="40" viewBox="0 0 40 40" fill="none" xmlns="http://www.w3.org/2000/svg">
<rect width="40" height="40" rx="4" fill="#E8E7FE"/>
<path d="M21.1935 18.794L21.1936 18.7959C21.1936 18.7969 21.1944 18.7977 21.1954 18.7977H31.5263C31.784 18.7977 31.9929 18.5888 31.9929 18.3311V13.8647C31.9929 13.607 31.784 13.3981 31.5263 13.3981H27.0598C26.8021 13.3981 26.5931 13.1891 26.5931 12.9314V8.46142C26.5931 8.20368 26.3842 7.99475 26.1265 7.99475H21.6601C21.4024 7.99475 21.1935 8.20368 21.1935 8.46142V18.794Z" fill="#5755FF"/>
<path d="M18.7942 21.1945C18.7941 21.1945 18.7942 21.1945 18.7942 21.1945L8.46146 21.1944C8.20372 21.1944 7.99479 21.4034 7.99479 21.6611V26.1274C7.99479 26.3852 8.20372 26.5941 8.46146 26.5941H12.9279C13.1856 26.5941 13.3946 26.803 13.3946 27.0608L13.3946 31.5272C13.3946 31.7849 13.6035 31.9939 13.8612 31.9939H18.3276C18.5853 31.9939 18.7943 31.7849 18.7943 31.5272L18.7942 21.1945Z" fill="#5755FF"/>
<path d="M31.9929 21.6609C31.9929 21.4032 31.784 21.1943 31.5263 21.1943H27.0599C26.8022 21.1943 26.5933 21.4032 26.5933 21.6609V26.1273C26.5933 26.385 26.8022 26.5939 27.0599 26.5939H31.5263C31.784 26.5939 31.9929 26.385 31.9929 26.1273V21.6609Z" fill="#5755FF"/>
<path d="M26.1265 31.9939C26.3842 31.9939 26.5931 31.7849 26.5931 31.5272V27.0608C26.5931 26.8031 26.3842 26.5942 26.1265 26.5942H21.6601C21.4024 26.5942 21.1935 26.8031 21.1935 27.0608V31.5272C21.1935 31.7849 21.4024 31.9939 21.6601 31.9939H26.1265Z" fill="#5755FF"/>
</svg>

<svg xmlns="http://www.w3.org/2000/svg" width="40" height="40" fill="none" xmlns:v="https://vecta.io/nano"><rect width="40" height="40" rx="4" fill="#e8e7fe"/><path d="M21.194 18.794v.002l10.333.002c.258 0 .467-.209.467-.467v-4.466c0-.258-.209-.467-.467-.467H27.06c-.258 0-.467-.209-.467-.467v-4.47c0-.258-.209-.467-.467-.467H21.66c-.258 0-.467.209-.467.467v10.333zm-2.4 2.401H8.461c-.258 0-.467.209-.467.467v4.466c0 .258.209.467.467.467h4.466c.258 0 .467.209.467.467v4.466c0 .258.209.467.467.467h4.466c.258 0 .467-.209.467-.467V21.195zm13.199.466c0-.258-.209-.467-.467-.467H27.06c-.258 0-.467.209-.467.467v4.466c0 .258.209.467.467.467h4.466c.258 0 .467-.209.467-.467v-4.466zm-5.866 10.333c.258 0 .467-.209.467-.467v-4.466c0-.258-.209-.467-.467-.467H21.66c-.258 0-.467.209-.467.467v4.466c0 .258.209.467.467.467h4.466z" fill="#5755ff"/></svg>
